!!!OTL: 519. Wohin?
!!!COM: Fr. Schubert
!!!ARE: Europa, Mitteleuropa, Deutschland
!!!SCT: B0519
!!!TXL: @@DE
!!!YEM: Copyright 1995, estate of Helmut Schaffrath.
**kern	**text
*ICvox	*
*Ivox	*
*clefG2	*
*M2/4	*
*k[f#]	*
*G:	*
!LO:TX:a:t=Mäßig.	!
{16bL	Jch
16ccJ	.
=1	=1
8dd	hört'
8dd	ein
8dd	Bäch-
8dd	-lein
=2	=2
8.ddL	rau-
16bJ	.
8g}	-ſchen
{16bL	wohl
16gJ	.
=3	=3
8d	aus
8d	dem
16dL	Fel-
16f#J	.
16aL	-ſen-
16f#J	.
=4	=4
4g	-quell,
8r}	.
{16bL	hin-
16ccJ	.
=5	=5
8dd	-ab
8dd	ʒum
8dd	Tha-
8dd	-le
=6	=6
8.ddL	rau-
16bJ	.
8g}	-ſchen,
{16bL	ſo
16gJ	.
=7	=7
8d	friſch
8d	und
16dL	wun-
16f#J	.
16aL	-der-
16f#J	.
=8	=8
4g	-hell.
8r}	.
{8b	2._Jch
=9	=9
(8ccqq	.
8b)	weiß
8b	nicht,
8r	.
16b	wie
16a	mir
=10	=10
(8aqq	.
8g#)	wur-
8g#	-de,
8r}	.
{8g#	nicht,
=11	=11
8a	wer
8a	den
8ee	Rath
16eeL	mir
16ddJ	.
=12	=12
4cc	gab:
8r}	.
{8a	ich
=13	=13
16bL	muß-
16ccJ	.
16bL	-te
16ccJ	.
8dd	auch
8dd	hin-
=14	=14
8.ddL	-un-
16bJ	.
8g}	-ter
{16bL	mit
16gJ	.
=15	=15
8d	mei-
8d	-nem
16dL	Wan-
16f#J	.
16aL	-der-
16f#J	.
=16	=16
4g	-ſtab;
8r}	.
==	==
!!!AGN: Wander - Lied
!!!GTL: Wanderlieder
!!!ONB: ESAC (Essen Associative Code) Database: BOEHME
!!!AMT: simple duple
!!!AIN: vox
!!!EED: Helmut Schaffrath
!!!EEV: 1.0
!!@@COMMENT:"Gedicht von Wilh. Müller 1818. (Aus den "Müllerliedern Nr. 2.) Die reiʒende Muſik
!!von Franʒ Schubert, op. 25, der das Lied durchkomponirt hat, kann ich hier nicht vollſtändig wiedergeben."
!!@@END:
!!!Text: W. Müller
!!!URL-scan: https://archive.org/details/BoehmeVtLieder1895/page/n413/mode/2up
!!!ENC: Anna Maria Matuszewska
!!!EEV: 2024/11/07
*-	*-
